X: 51
T: Erhai bian shang fengshou mang
L: 1/4
M: 2/4
K: Bb
c2 [I:setbarnb 1]| 
d'd' | 
c'2 | 
d'c'/ b/ | 
[M:3/4]gf=e | 
fbg | 
f2d | 
[M:2/4]c2- | 
c2 | 
c'2- | 
c'2 | 
[M:3/4]gbg | 
f2d | 
[M:2/4]c2 | 
G/ z/c | 
cb | 
[M:3/4]gc'2 | 
[M:2/4]d'g | 
fd | 
c2 | 
d'c'/ b/ | 
[M:3/4]gfg | 
gg/ b/g | 
[M:2/4]f2 | 
d2 | 
c2- | 
c2 | 
c2 | 
d'd' | 
[M:3/4]d'c'2 | 
[M:2/4]d'c'/ b/ | 
[M:3/4]gf=e | 
fbg | 
[M:2/4]f2 | 
d2 | 
[M:3/4]c2G/ z/ | 
cfg | 
[M:2/4]c'2- | 
c'2 | 
d'g | 
bg | 
f2 | 
d2 | 
c2- | 
c2 | 
cf | 
[M:3/4]gc'2 | 
[M:2/4]d'g | 
[M:3/4]fd2 | 
[M:2/4]c2 | 
d'c'/ b/ | 
[M:3/4]gfg | 
d'f2 | 
dc2- | 
[M:2/4]cG/ z/ | 
c2 | 
d'd' | 
c'2 | 
d'c'/ b/ | 
[M:3/4]gf=e | 
fbg | 
f2d | 
[M:2/4]c2- | 
c2 | 
c'2- | 
c'2 | 
[M:3/4]gbg | 
f2d | 
[M:2/4]c2 | 
G/ z/c | 
cb | 
[M:3/4]gc'2 | 
[M:2/4]d'g | 
fd | 
c2 | 
d'c'/ b/ | 
[M:3/4]gfg | 
gg/ b/g | 
[M:2/4]f2 | 
d2 | 
c2- | 
c2 | 
c2 | 
d'd' | 
[M:3/4]d'c'2 | 
[M:2/4]d'c'/ b/ | 
[M:3/4]gf=e | 
fbg | 
[M:2/4]f2 | 
d2 | 
[M:3/4]c2G/ z/ | 
cfg | 
[M:2/4]c'2- | 
c'2 | 
d'g | 
bg | 
f2 | 
d2 | 
c2- | 
c2 | 
cf | 
[M:3/4]gc'2 | 
[M:2/4]d'g | 
[M:3/4]fd2 | 
[M:2/4]c2 | 
d'c'/ b/ | 
[M:3/4]gfg | 
[M:2/4]d'f- | 
fd | 
dc- | 
cG/ z/ |]

@@@ Tune index: 8719
